!!!OTL: Der Maedchenmoerder (Halewijn - Ulinger) Es ritt ein Ritter wohl ueber das Ried
!!!ARE: Europa, Mitteleuropa, Schweiz, Kanton Bern
!!!YOR: 2, S. 112
!!    1900 aufgezeichnet
!!!SCT: Q0041S
!!!YEM: Copyright 1995, estate of Helmut Schaffrath.
**kern
*ICvox
*Ivox
*M6/8
*k[f#]
*G:
{16g
16b
=1
4dd
8b
8.b
16cc
8dd
=2
8.cc
16a
8a
4a}
{8dd
=3
8.b
16g
8g
8.g
16a
8b
=4
4a
8a
4a}
{8g
=5
8.b
16b
8b
8.a
16g
8a
=6
4b
8ee
4dd}
{8b
=7
8.dd
16ee
8dd
8.cc
16b
8a
=8
4cc
8dd
4b}
==
!!!AGN: Ballade, Verfuehrung, Mord, Mordversuch bzw. Rache
!!!ONB: ESAC (Essen Associative Code) Database: BALLADE
!!!AMT: compound duple
!!!AIN: vox
!!!EED: Helmut Schaffrath
!!!EEV: 1.0
*-
